source/Icon/calendar.svg

<svg width="32" height="32" viewBox="0 0 48 48" fill="none" xmlns="http://www.w3.org/2000/svg">
    <path d="M5 19H43V40C43 41.1046 42.1046 42 41 42H7C5.89543 42 5 41.1046 5 40V19Z" fill="#2F88FF" stroke="#000000" stroke-width="4" stroke-linejoin="round"/>
    <path d="M5 9C5 7.89543 5.89543 7 7 7H41C42.1046 7 43 7.89543 43 9V19H5V9Z" stroke="#000000" stroke-width="4" stroke-linejoin="round"/>
    <path d="M16 4V12" stroke="#000000" stroke-width="4" stroke-linecap="round" stroke-linejoin="round"/>
    <path d="M32 4V12" stroke="#000000" stroke-width="4" stroke-linecap="round" stroke-linejoin="round"/>
    <path d="M28 34H34" stroke="#FFF" stroke-width="4" stroke-linecap="round" stroke-linejoin="round"/>
    <path d="M14 34H20" stroke="#FFF" stroke-width="4" stroke-linecap="round" stroke-linejoin="round"/>
    <path d="M28 26H34" stroke="#FFF" stroke-width="4" stroke-linecap="round" stroke-linejoin="round"/>
    <path d="M14 26H20" stroke="#FFF" stroke-width="4" stroke-linecap="round" stroke-linejoin="round"/>
</svg>

<svg width="48" height="48" viewBox="0 0 48 48" fill="none" xmlns="http://www.w3.org/2000/svg">
    <path stroke-linejoin="round" stroke-width="4" stroke="#333"
        d="M5 19h38v21a2 2 0 0 1-2 2H7a2 2 0 0 1-2-2V19ZM5 9a2 2 0 0 1 2-2h34a2 2 0 0 1 2 2v10H5V9Z" />
    <path stroke-linejoin="round" stroke-linecap="round" stroke-width="4" stroke="#333"
        d="M16 4v8M32 4v8M28 34h6M14 34h6M28 26h6M14 26h6" />
</svg>
